img/footer/googleBtn.svg

<svg width="160" height="40" viewBox="0 0 160 40" fill="none" xmlns="http://www.w3.org/2000/svg">
<rect x="1" y="0.5" width="158.5" height="39" rx="4.5" stroke="white"/>
<path d="M68.636 21.7509C66.284 21.7509 64.367 23.5399 64.367 26.0039C64.367 28.4529 66.284 30.2569 68.636 30.2569C70.989 30.2569 72.906 28.4529 72.906 26.0039C72.905 23.5399 70.988 21.7509 68.636 21.7509ZM68.636 28.5829C67.347 28.5829 66.236 27.5199 66.236 26.0049C66.236 24.4739 67.348 23.4269 68.636 23.4269C69.925 23.4269 71.036 24.4739 71.036 26.0049C71.036 27.5189 69.925 28.5829 68.636 28.5829ZM59.322 21.7509C56.97 21.7509 55.053 23.5399 55.053 26.0039C55.053 28.4529 56.97 30.2569 59.322 30.2569C61.675 30.2569 63.592 28.4529 63.592 26.0039C63.592 23.5399 61.675 21.7509 59.322 21.7509ZM59.322 28.5829C58.033 28.5829 56.922 27.5199 56.922 26.0049C56.922 24.4739 58.034 23.4269 59.322 23.4269C60.611 23.4269 61.722 24.4739 61.722 26.0049C61.723 27.5189 60.611 28.5829 59.322 28.5829ZM48.244 23.0569V24.8609H52.562C52.433 25.8759 52.095 26.6169 51.579 27.1319C50.951 27.7599 49.968 28.4529 48.244 28.4529C45.586 28.4529 43.508 26.3099 43.508 23.6519C43.508 20.9939 45.586 18.8509 48.244 18.8509C49.678 18.8509 50.725 19.4149 51.498 20.1399L52.771 18.8669C51.691 17.8359 50.258 17.0469 48.244 17.0469C44.603 17.0469 41.542 20.0109 41.542 23.6519C41.542 27.2929 44.603 30.2569 48.244 30.2569C50.209 30.2569 51.692 29.6119 52.851 28.4039C54.043 27.2119 54.414 25.5359 54.414 24.1829C54.414 23.7649 54.382 23.3779 54.317 23.0559H48.244V23.0569ZM93.552 24.4579C93.198 23.5079 92.118 21.7509 89.911 21.7509C87.72 21.7509 85.899 23.4749 85.899 26.0039C85.899 28.3879 87.704 30.2569 90.12 30.2569C92.069 30.2569 93.197 29.0649 93.665 28.3719L92.215 27.4049C91.732 28.1139 91.071 28.5809 90.12 28.5809C89.17 28.5809 88.493 28.1459 88.058 27.2919L93.745 24.9399L93.552 24.4579ZM87.752 25.8759C87.704 24.2319 89.025 23.3949 89.976 23.3949C90.717 23.3949 91.345 23.7659 91.555 24.2969L87.752 25.8759ZM83.129 29.9999H84.997V17.4989H83.129V29.9999ZM80.067 22.7019H80.003C79.584 22.2019 78.778 21.7509 77.764 21.7509C75.637 21.7509 73.688 23.6199 73.688 26.0209C73.688 28.4049 75.637 30.2579 77.764 30.2579C78.779 30.2579 79.584 29.8069 80.003 29.2919H80.067V29.9039C80.067 31.5309 79.197 32.4009 77.796 32.4009C76.652 32.4009 75.943 31.5799 75.653 30.8869L74.026 31.5639C74.493 32.6909 75.733 34.0769 77.796 34.0769C79.987 34.0769 81.84 32.7879 81.84 29.6459V22.0099H80.068V22.7019H80.067ZM77.925 28.5829C76.636 28.5829 75.557 27.5029 75.557 26.0209C75.557 24.5219 76.636 23.4269 77.925 23.4269C79.197 23.4269 80.196 24.5219 80.196 26.0209C80.196 27.5029 79.197 28.5829 77.925 28.5829ZM102.306 17.4989H97.835V29.9999H99.7V25.2639H102.305C104.373 25.2639 106.407 23.7669 106.407 21.3819C106.407 18.9969 104.374 17.4989 102.306 17.4989ZM102.354 23.5239H99.7V19.2389H102.354C103.749 19.2389 104.541 20.3939 104.541 21.3819C104.541 22.3499 103.749 23.5239 102.354 23.5239ZM113.886 21.7289C112.535 21.7289 111.136 22.3239 110.557 23.6429L112.213 24.3339C112.567 23.6429 113.227 23.4169 113.918 23.4169C114.883 23.4169 115.864 23.9959 115.88 25.0249V25.1539C115.542 24.9609 114.818 24.6719 113.934 24.6719C112.149 24.6719 110.331 25.6529 110.331 27.4859C110.331 29.1589 111.795 30.2359 113.435 30.2359C114.689 30.2359 115.381 29.6729 115.815 29.0129H115.879V29.9779H117.681V25.1849C117.682 22.9669 116.024 21.7289 113.886 21.7289ZM113.66 28.5799C113.05 28.5799 112.197 28.2739 112.197 27.5179C112.197 26.5529 113.259 26.1829 114.176 26.1829C114.995 26.1829 115.382 26.3599 115.88 26.6009C115.735 27.7599 114.738 28.5799 113.66 28.5799ZM124.243 22.0019L122.104 27.4219H122.04L119.82 22.0019H117.81L121.139 29.5769L119.241 33.7909H121.187L126.318 22.0019H124.243ZM107.437 29.9999H109.302V17.4989H107.437V29.9999Z" fill="white"/>
<path d="M47.9176 10.2432C47.9176 11.0812 47.6696 11.7482 47.1726 12.2462C46.6086 12.8382 45.8726 13.1342 44.9686 13.1342C44.1026 13.1342 43.3656 12.8342 42.7606 12.2342C42.1546 11.6332 41.8516 10.8892 41.8516 10.0012C41.8516 9.11219 42.1546 8.36819 42.7606 7.76819C43.3656 7.16719 44.1026 6.86719 44.9686 6.86719C45.3986 6.86719 45.8096 6.95119 46.1996 7.11819C46.5906 7.28619 46.9036 7.50919 47.1376 7.78819L46.6106 8.31619C46.2136 7.84119 45.6666 7.60419 44.9676 7.60419C44.3356 7.60419 43.7896 7.82619 43.3286 8.27019C42.8676 8.71419 42.6376 9.29119 42.6376 10.0002C42.6376 10.7092 42.8676 11.2862 43.3286 11.7302C43.7896 12.1742 44.3356 12.3962 44.9676 12.3962C45.6376 12.3962 46.1966 12.1732 46.6436 11.7262C46.9336 11.4352 47.1016 11.0302 47.1466 10.5112H44.9676V9.79019H47.8746C47.9046 9.94719 47.9176 10.0982 47.9176 10.2432Z" fill="white"/>
<path d="M52.5277 7.73724H49.7957V9.63924H52.2597V10.3602H49.7957V12.2622H52.5277V13.0002H49.0247V7.00024H52.5277V7.73724Z" fill="white"/>
<path d="M55.7785 13.0002H55.0075V7.73724H53.3315V7.00024H57.4545V7.73724H55.7785V13.0002Z" fill="white"/>
<path d="M60.4375 13.0002V7.00024H61.2085V13.0002H60.4375Z" fill="white"/>
<path d="M64.6277 13.0002H63.8567V7.73724H62.1807V7.00024H66.3037V7.73724H64.6277V13.0002Z" fill="white"/>
<path d="M74.1084 12.2252C73.5184 12.8312 72.7854 13.1342 71.9084 13.1342C71.0314 13.1342 70.2984 12.8312 69.7094 12.2252C69.1194 11.6192 68.8254 10.8772 68.8254 10.0002C68.8254 9.12323 69.1194 8.38123 69.7094 7.77523C70.2984 7.16923 71.0314 6.86523 71.9084 6.86523C72.7804 6.86523 73.5124 7.17023 74.1044 7.77923C74.6964 8.38823 74.9924 9.12823 74.9924 10.0002C74.9924 10.8772 74.6974 11.6192 74.1084 12.2252ZM70.2784 11.7222C70.7224 12.1722 71.2654 12.3962 71.9084 12.3962C72.5514 12.3962 73.0954 12.1712 73.5384 11.7222C73.9824 11.2722 74.2054 10.6982 74.2054 10.0002C74.2054 9.30223 73.9824 8.72823 73.5384 8.27823C73.0954 7.82823 72.5514 7.60423 71.9084 7.60423C71.2654 7.60423 70.7224 7.82923 70.2784 8.27823C69.8354 8.72823 69.6124 9.30223 69.6124 10.0002C69.6124 10.6982 69.8354 11.2722 70.2784 11.7222Z" fill="white"/>
<path d="M76.0745 13.0002V7.00024H77.0125L79.9285 11.6672H79.9615L79.9285 10.5112V7.00024H80.6995V13.0002H79.8945L76.8435 8.10625H76.8105L76.8435 9.26224V13.0002H76.0745Z" fill="white"/>
<path d="M47.9176 10.2432C47.9176 11.0812 47.6696 11.7482 47.1726 12.2462C46.6086 12.8382 45.8726 13.1342 44.9686 13.1342C44.1026 13.1342 43.3656 12.8342 42.7606 12.2342C42.1546 11.6332 41.8516 10.8892 41.8516 10.0012C41.8516 9.11219 42.1546 8.36819 42.7606 7.76819C43.3656 7.16719 44.1026 6.86719 44.9686 6.86719C45.3986 6.86719 45.8096 6.95119 46.1996 7.11819C46.5906 7.28619 46.9036 7.50919 47.1376 7.78819L46.6106 8.31619C46.2136 7.84119 45.6666 7.60419 44.9676 7.60419C44.3356 7.60419 43.7896 7.82619 43.3286 8.27019C42.8676 8.71419 42.6376 9.29119 42.6376 10.0002C42.6376 10.7092 42.8676 11.2862 43.3286 11.7302C43.7896 12.1742 44.3356 12.3962 44.9676 12.3962C45.6376 12.3962 46.1966 12.1732 46.6436 11.7262C46.9336 11.4352 47.1016 11.0302 47.1466 10.5112H44.9676V9.79019H47.8746C47.9046 9.94719 47.9176 10.0982 47.9176 10.2432Z" stroke="white" stroke-width="0.2" stroke-miterlimit="10"/>
<path d="M52.5277 7.73724H49.7957V9.63924H52.2597V10.3602H49.7957V12.2622H52.5277V13.0002H49.0247V7.00024H52.5277V7.73724Z" stroke="white" stroke-width="0.2" stroke-miterlimit="10"/>
<path d="M55.7785 13.0002H55.0075V7.73724H53.3315V7.00024H57.4545V7.73724H55.7785V13.0002Z" stroke="white" stroke-width="0.2" stroke-miterlimit="10"/>
<path d="M60.4375 13.0002V7.00024H61.2085V13.0002H60.4375Z" stroke="white" stroke-width="0.2" stroke-miterlimit="10"/>
<path d="M64.6277 13.0002H63.8567V7.73724H62.1807V7.00024H66.3037V7.73724H64.6277V13.0002Z" stroke="white" stroke-width="0.2" stroke-miterlimit="10"/>
<path d="M74.1084 12.2252C73.5184 12.8312 72.7854 13.1342 71.9084 13.1342C71.0314 13.1342 70.2984 12.8312 69.7094 12.2252C69.1194 11.6192 68.8254 10.8772 68.8254 10.0002C68.8254 9.12323 69.1194 8.38123 69.7094 7.77523C70.2984 7.16923 71.0314 6.86523 71.9084 6.86523C72.7804 6.86523 73.5124 7.17023 74.1044 7.77923C74.6964 8.38823 74.9924 9.12823 74.9924 10.0002C74.9924 10.8772 74.6974 11.6192 74.1084 12.2252ZM70.2784 11.7222C70.7224 12.1722 71.2654 12.3962 71.9084 12.3962C72.5514 12.3962 73.0954 12.1712 73.5384 11.7222C73.9824 11.2722 74.2054 10.6982 74.2054 10.0002C74.2054 9.30223 73.9824 8.72823 73.5384 8.27823C73.0954 7.82823 72.5514 7.60423 71.9084 7.60423C71.2654 7.60423 70.7224 7.82923 70.2784 8.27823C69.8354 8.72823 69.6124 9.30223 69.6124 10.0002C69.6124 10.6982 69.8354 11.2722 70.2784 11.7222Z" stroke="white" stroke-width="0.2" stroke-miterlimit="10"/>
<path d="M76.0745 13.0002V7.00024H77.0125L79.9285 11.6672H79.9615L79.9285 10.5112V7.00024H80.6995V13.0002H79.8945L76.8435 8.10625H76.8105L76.8435 9.26224V13.0002H76.0745Z" stroke="white" stroke-width="0.2" stroke-miterlimit="10"/>
<path fill-rule="evenodd" clip-rule="evenodd" d="M10.656 7.96666C10.5379 8.23416 10.4727 8.56193 10.4727 8.94318V31.0592C10.4727 31.4413 10.538 31.7691 10.6562 32.0365L22.6902 20.0008L10.656 7.96666ZM11.3512 32.7557C11.7973 32.9465 12.3792 32.886 13.0137 32.5262L27.1708 24.4814L23.3973 20.7079L11.3512 32.7557ZM28.0732 23.9696L32.5147 21.4462C33.9116 20.6512 33.9116 19.3522 32.5147 18.5582L28.0712 16.0333L24.1043 20.0008L28.0732 23.9696ZM27.1694 15.5209L13.0137 7.47719C12.3791 7.11661 11.7972 7.05645 11.3512 7.24759L23.3972 19.2937L27.1694 15.5209Z" fill="white"/>
</svg>

<svg width="160" height="40" viewBox="0 0 160 40" fill="none" xmlns="http://www.w3.org/2000/svg"><rect x="1" y=".5" width="158.5" height="39" rx="4.5" stroke="#fff"/><path d="M68.636 21.75c-2.352 0-4.269 1.79-4.269 4.254 0 2.449 1.917 4.253 4.269 4.253s4.27-1.804 4.27-4.253c-.001-2.464-1.918-4.253-4.27-4.253m0 6.833c-1.289 0-2.4-1.063-2.4-2.578 0-1.531 1.112-2.578 2.4-2.578 1.289 0 2.4 1.047 2.4 2.578 0 1.514-1.111 2.578-2.4 2.578m-9.314-6.832c-2.352 0-4.269 1.789-4.269 4.253 0 2.449 1.917 4.253 4.269 4.253s4.27-1.804 4.27-4.253c0-2.464-1.917-4.253-4.27-4.253m0 6.832c-1.289 0-2.4-1.063-2.4-2.578 0-1.531 1.112-2.578 2.4-2.578 1.289 0 2.4 1.047 2.4 2.578.001 1.514-1.111 2.578-2.4 2.578m-11.078-5.526v1.804h4.318c-.129 1.015-.467 1.756-.983 2.27-.628.629-1.611 1.322-3.335 1.322-2.658 0-4.736-2.143-4.736-4.801s2.078-4.801 4.736-4.801c1.434 0 2.481.564 3.254 1.289l1.273-1.273c-1.08-1.031-2.513-1.82-4.527-1.82-3.641 0-6.702 2.964-6.702 6.605 0 3.64 3.061 6.605 6.702 6.605 1.965 0 3.448-.645 4.607-1.853 1.192-1.192 1.563-2.868 1.563-4.221 0-.418-.032-.805-.097-1.127h-6.073m45.308 1.4c-.354-.95-1.434-2.706-3.641-2.706-2.191 0-4.012 1.724-4.012 4.253 0 2.384 1.805 4.253 4.221 4.253 1.949 0 3.077-1.192 3.545-1.885l-1.45-.967c-.483.709-1.144 1.176-2.095 1.176-.95 0-1.627-.435-2.062-1.29l5.687-2.351zm-5.8 1.419c-.048-1.644 1.273-2.481 2.224-2.481.741 0 1.369.37 1.579.902zM83.129 30h1.868V17.499h-1.868zm-3.062-7.298h-.064c-.419-.5-1.225-.951-2.239-.951-2.127 0-4.076 1.869-4.076 4.27 0 2.384 1.949 4.237 4.076 4.237 1.015 0 1.82-.451 2.239-.966h.064v.612c0 1.627-.87 2.497-2.271 2.497-1.144 0-1.853-.821-2.143-1.514l-1.627.677c.467 1.127 1.707 2.513 3.77 2.513 2.191 0 4.044-1.29 4.044-4.431V22.01h-1.772v.692zm-2.142 5.88c-1.289 0-2.368-1.08-2.368-2.561 0-1.5 1.079-2.594 2.368-2.594 1.272 0 2.271 1.095 2.271 2.594 0 1.482-.999 2.562-2.271 2.562M102.306 17.5h-4.471V30H99.7v-4.735h2.605c2.068 0 4.102-1.497 4.102-3.882s-2.033-3.883-4.101-3.883m.048 6.025H99.7V19.24h2.654c1.395 0 2.187 1.155 2.187 2.143 0 .968-.792 2.142-2.187 2.142m11.532-1.795c-1.351 0-2.75.595-3.329 1.914l1.656.69c.354-.69 1.014-.916 1.705-.916.965 0 1.946.579 1.962 1.608v.129c-.338-.193-1.062-.482-1.946-.482-1.785 0-3.603.98-3.603 2.814 0 1.673 1.464 2.75 3.104 2.75 1.254 0 1.946-.563 2.38-1.223h.064v.965h1.802v-4.793c.001-2.218-1.657-3.456-3.795-3.456m-.226 6.85c-.61 0-1.463-.305-1.463-1.061 0-.965 1.062-1.335 1.979-1.335.819 0 1.206.177 1.704.418a2.26 2.26 0 0 1-2.22 1.979m10.583-6.577-2.139 5.42h-.064l-2.22-5.42h-2.01l3.329 7.575-1.898 4.214h1.946L126.318 22zM107.437 30h1.865V17.499h-1.865zM47.918 10.243q0 1.257-.745 2.003-.847.888-2.204.888-1.3 0-2.208-.9-.91-.9-.91-2.233t.91-2.233 2.208-.9q.645 0 1.23.25.588.252.939.67l-.527.528q-.595-.712-1.643-.712-.947 0-1.64.666-.69.666-.69 1.73t.69 1.73a2.28 2.28 0 0 0 1.64.666q1.005 0 1.676-.67.435-.436.503-1.215h-2.18v-.72h2.908q.044.234.043.452m4.61-2.506h-2.732V9.64h2.464v.721h-2.464v1.902h2.732V13h-3.503V7h3.503zM55.779 13h-.772V7.737h-1.675V7h4.123v.737h-1.676zm4.659 0V7h.77v6zm4.19 0h-.771V7.737H62.18V7h4.123v.737h-1.676zm9.48-.775q-.885.91-2.2.91t-2.199-.91q-.885-.91-.884-2.225 0-1.316.884-2.225.884-.91 2.2-.91 1.307 0 2.195.914.888.915.888 2.221 0 1.317-.884 2.225m-3.83-.503a2.2 2.2 0 0 0 1.63.674q.965 0 1.63-.674.667-.675.667-1.722t-.667-1.722a2.2 2.2 0 0 0-1.63-.674q-.964 0-1.63.674-.665.675-.666 1.722 0 1.047.666 1.722M76.075 13V7h.938l2.915 4.667h.034l-.034-1.156v-3.51h.772v6h-.806l-3.05-4.895h-.033l.032 1.156V13z" fill="#fff"/><path d="M47.918 10.243q0 1.257-.745 2.003-.847.888-2.204.888-1.3 0-2.208-.9-.91-.9-.91-2.233t.91-2.233 2.208-.9q.645 0 1.23.25.588.252.939.67l-.527.528q-.595-.712-1.643-.712-.947 0-1.64.666-.69.666-.69 1.73t.69 1.73a2.28 2.28 0 0 0 1.64.666q1.005 0 1.676-.67.435-.436.503-1.215h-2.18v-.72h2.908q.044.234.043.452Zm4.61-2.506h-2.732V9.64h2.464v.721h-2.464v1.902h2.732V13h-3.503V7h3.503zM55.779 13h-.772V7.737h-1.675V7h4.123v.737h-1.676zm4.659 0V7h.77v6zm4.19 0h-.771V7.737H62.18V7h4.123v.737h-1.676zm9.48-.775q-.885.91-2.2.91t-2.199-.91q-.885-.91-.884-2.225 0-1.316.884-2.225.884-.91 2.2-.91 1.307 0 2.195.914.888.915.888 2.221 0 1.317-.884 2.225Zm-3.83-.503a2.2 2.2 0 0 0 1.63.674q.965 0 1.63-.674.667-.675.667-1.722t-.667-1.722a2.2 2.2 0 0 0-1.63-.674q-.964 0-1.63.674-.665.675-.666 1.722 0 1.047.666 1.722ZM76.075 13V7h.938l2.915 4.667h.034l-.034-1.156v-3.51h.772v6h-.806l-3.05-4.895h-.033l.032 1.156V13z" stroke="#fff" stroke-width=".2" stroke-miterlimit="10"/><path fill-rule="evenodd" clip-rule="evenodd" d="M10.656 7.967a2.4 2.4 0 0 0-.183.976V31.06c0 .382.065.71.183.977L22.69 20.001zm.695 24.789c.446.19 1.028.13 1.663-.23l14.157-8.045-3.774-3.773zm16.722-8.786 4.442-2.524c1.397-.795 1.397-2.094 0-2.888l-4.444-2.525-3.967 3.968zm-.904-8.45L13.014 7.478c-.635-.36-1.217-.42-1.663-.23l12.046 12.047z" fill="#fff"/></svg>
